X:0037
M:6/8
L:1/8
Q:3/8=88
K:D
ded dcB|ABc d3 |e2g f2a|ecA A3 |
ded dcB|ABc d2F|G2A B2d|AFD D3:|

